svg/go.svg

<svg viewBox="0 0 20 20" xmlns="http://www.w3.org/2000/svg">
<rect width="100%" height="100%" fill="#00ADD8"/>
<path d="M2.3239 8.5393C2.32986 8.54252 2.33833 8.54427 2.34963 8.54427L5.52097 8.56001C5.53289 8.55827 5.54419 8.55499 5.55486 8.55031C5.57588 8.54121 5.59439 8.52681 5.60851 8.50828L5.75693 8.28336C5.77513 8.25638 5.76603 8.22939 5.72994 8.22939H2.60379C2.58528 8.2292 2.56708 8.23314 2.55013 8.24092C2.5335 8.24871 2.51876 8.26014 2.50715 8.27438L2.32265 8.49928C2.31009 8.51787 2.31041 8.53219 2.3239 8.5393Z" fill="white"/>
<path d="M1.00918 9.34375C1.01514 9.34744 1.02424 9.34946 1.03616 9.34946L5.17895 9.34047C5.1959 9.34187 5.21315 9.33753 5.22727 9.32816C5.24139 9.31878 5.25238 9.30492 5.25771 9.28874L5.32737 9.07731C5.33647 9.05033 5.31858 9.02558 5.2847 9.02558H1.29032C1.28122 9.02542 1.27244 9.02623 1.26365 9.02795C1.25455 9.02976 1.24577 9.03254 1.23729 9.03631C1.22035 9.0437 1.2056 9.05462 1.19336 9.06831L1.00918 9.30449C0.996941 9.32245 0.996941 9.33641 1.00918 9.34375Z" fill="white"/>
<path d="M3.12905 10.1471C3.1347 10.1518 3.14317 10.1547 3.15478 10.1547L5.06442 10.1569C5.08043 10.1559 5.09549 10.1493 5.1071 10.1381C5.11839 10.127 5.12561 10.1121 5.12718 10.0962L5.14287 9.88476C5.14287 9.86054 5.13471 9.83979 5.11682 9.83002C5.10992 9.82618 5.10145 9.82404 5.09141 9.82404H3.33928C3.3214 9.82557 3.30414 9.83126 3.28908 9.84063C3.2737 9.85001 3.26084 9.86279 3.25142 9.87801L3.12999 10.1029C3.11807 10.1208 3.11807 10.1377 3.12905 10.1471Z" fill="white"/>
<path fill-rule="evenodd" clip-rule="evenodd" d="M11.5037 8.57963C11.7359 8.51779 11.9691 8.45572 12.2458 8.38457C12.3538 8.35984 12.3898 8.31486 12.3359 8.23614C12.1278 7.73221 11.7739 7.30214 11.3192 7.00135C10.981 6.77759 10.601 6.62425 10.2022 6.55043C9.80339 6.47664 9.39391 6.48389 8.99793 6.57177C8.01675 6.74417 7.13911 7.28683 6.54639 8.0877C6.2574 8.44423 6.04247 8.85487 5.91444 9.29555C5.78611 9.7362 5.7472 10.198 5.79992 10.654C5.83851 11.0382 5.95775 11.41 6.14946 11.7452C6.34118 12.0804 6.6013 12.3714 6.91319 12.5995C7.24674 12.8495 7.62766 13.0295 8.03275 13.1288C8.43783 13.2281 8.85861 13.2447 9.27028 13.1775C9.76605 13.1138 10.2439 12.9488 10.6732 12.6926C11.1027 12.4365 11.4749 12.0947 11.7667 11.6886C11.9079 11.5022 12.0306 11.3037 12.1338 11.0959C12.2819 11.6258 12.586 12.102 13.0105 12.46C13.6092 12.9627 14.3676 13.2355 15.1495 13.2292C15.3767 13.2045 15.6195 13.1955 15.8489 13.1573C16.6478 13.0041 17.3811 12.6119 17.9518 12.0327C18.3469 11.6554 18.645 11.1882 18.8204 10.6708C18.9958 10.1535 19.0438 9.60136 18.9597 9.06157C18.9089 8.6657 18.7721 8.28573 18.5587 7.94842C18.3453 7.61113 18.0607 7.3247 17.7247 7.10931C16.9622 6.58975 16.1279 6.50203 15.2283 6.65947C14.7422 6.72721 14.2744 6.89168 13.853 7.14316C13.4316 7.39465 13.0648 7.72806 12.7745 8.12367C12.4997 8.46025 12.2932 8.84688 12.1668 9.26176H9.35783C9.31045 9.25823 9.26307 9.26984 9.2229 9.2949C9.18243 9.31994 9.15105 9.35716 9.13285 9.40119C9.00702 9.6306 8.79774 10.0849 8.68321 10.3571C8.62484 10.5055 8.66532 10.6202 8.84951 10.6202H10.5433C10.4554 10.7417 10.3858 10.8474 10.307 10.9441C10.1294 11.1609 9.89878 11.3281 9.6374 11.4294C9.37634 11.5307 9.09331 11.5627 8.81593 11.5221C8.48521 11.4756 8.18305 11.3102 7.9656 11.0568C7.74815 10.8034 7.6308 10.4795 7.63519 10.1457C7.62296 9.81322 7.69983 9.48356 7.85798 9.1909C8.01643 8.89823 8.24988 8.65323 8.53479 8.4813C8.76008 8.31762 9.02616 8.21892 9.30354 8.19592C9.58124 8.17291 9.85987 8.22651 10.109 8.35084C10.27 8.42876 10.4109 8.54264 10.5207 8.68372C10.6305 8.80847 10.6412 8.80568 10.7582 8.77572L10.7748 8.77144C11.0447 8.70202 11.2737 8.64095 11.5037 8.57963ZM17.2076 9.40119C17.2223 9.49728 17.2311 9.59416 17.2346 9.69133C17.2204 10.0471 17.1081 10.3919 16.9095 10.6874C16.7109 10.9829 16.4341 11.2174 16.11 11.3647C15.8919 11.4832 15.6497 11.5495 15.4018 11.5585C15.1539 11.5674 14.9076 11.5188 14.6817 11.4164C14.3754 11.2776 14.1275 11.0362 13.9804 10.734C13.8335 10.4317 13.7968 10.0876 13.8765 9.76105C13.9481 9.38203 14.1329 9.03354 14.4062 8.76138C14.6795 8.48922 15.0287 8.30611 15.4081 8.23614C15.6032 8.18421 15.8072 8.17372 16.0064 8.20533C16.206 8.23696 16.3965 8.30999 16.5662 8.41974C16.7357 8.5295 16.8803 8.67352 16.9908 8.84257C17.1012 9.0116 17.1749 9.20188 17.2076 9.40119Z" fill="white"/>
</svg>

<svg xmlns="http://www.w3.org/2000/svg" viewBox="0 0 20 20">
  <rect width="100%" height="100%" fill="#00ADD8"/>
  <path fill="#fff" d="M2.32 8.54h.03l3.17.02.03-.01c.03 0 .04-.02.06-.04l.15-.23c.02-.02 0-.05-.03-.05H2.6a.13.13 0 0 0-.1.04l-.18.23v.04ZM1 9.34h4.18a.08.08 0 0 0 .08-.05l.07-.21c0-.03-.01-.05-.05-.05H1.3a.13.13 0 0 0-.1.04l-.18.23v.04ZM3.13 10.15h1.93a.07.07 0 0 0 .07-.05l.01-.22c0-.02 0-.04-.02-.05H3.34a.11.11 0 0 0-.09.05l-.12.22v.05Z"/>
  <path fill="#fff" fill-rule="evenodd" d="m11.5 8.58.75-.2c.1-.02.14-.07.09-.14-.21-.5-.57-.94-1.02-1.24A3.02 3.02 0 0 0 9 6.57c-.98.17-1.86.72-2.45 1.52a3.44 3.44 0 0 0-.75 2.56 2.75 2.75 0 0 0 1.11 1.95 3.1 3.1 0 0 0 2.36.58 3.64 3.64 0 0 0 2.5-1.5c.14-.18.26-.38.36-.58.15.53.46 1 .88 1.36.6.5 1.36.78 2.14.77.23-.03.47-.03.7-.07a4.01 4.01 0 0 0 2.97-2.49c.18-.52.22-1.07.14-1.6a2.73 2.73 0 0 0-1.24-1.96c-.76-.52-1.6-.6-2.5-.45a3.67 3.67 0 0 0-2.45 1.46c-.27.34-.48.73-.6 1.14H9.36a.22.22 0 0 0-.23.14c-.12.23-.33.68-.45.96-.06.15-.01.26.17.26h1.7l-.24.32a1.62 1.62 0 0 1-1.5.58 1.37 1.37 0 0 1-1.17-1.37 1.86 1.86 0 0 1 .9-1.67 1.52 1.52 0 0 1 1.57-.13c.16.08.3.2.41.33.11.13.12.13.24.1h.01l.73-.2Zm5.7.82.03.3a1.92 1.92 0 0 1-1.12 1.66 1.6 1.6 0 0 1-1.43.06 1.44 1.44 0 0 1-.8-1.66 1.91 1.91 0 0 1 1.53-1.52 1.45 1.45 0 0 1 1.8 1.16Z" clip-rule="evenodd"/>
</svg>
